X:1
T:Title
%%score 1 { 2 | 3 }
L:1/8
M:4/4
K:A
V:1 treble nm="Choir Aahs"
V:2 treble nm="Grand Piano"
V:3 bass 
V:1
 z8[Q:1/4=100] | z8 |[M:3/4] z6 |[M:1/4] E2 |[M:4/4] c4 B2 A2 | c4 B2 A2 | d2 d2 A2 B2 | c4 A2 A2 | %8
 B4 G2 E2 |[M:3/4] E2 c2 A2 |[M:1/4] A2 |[M:4/4] B2 B2 G2 E2 |[M:3/4] A6 |[M:1/4] E2 | %14
[M:4/4] c4 B2 A2 | c4 B2 A2 | d2 d2 A2 B2 | c4 A2 A2 | B4 G2 E2 |[M:3/4] E2 c2 A2 |[M:1/4] A2 | %21
[M:4/4] d2 B2 G2 E2 | A6 z2 | B4 A2 F2 | G4 B2 e2 | ^d2 c2 B2 A2 | G4 G2 B2 | B4 A2 F2 | %28
 G2 B2 B2 e2 | ^d2 B2 A2 F2 |[M:3/4] E6 |[M:1/4] z2 |[M:4/4] z8 |[M:3/4] z6 |[M:1/4] E2 | %35
[M:4/4] c4 B2 A2 | c4 B2 A2 | d2 d2 A2 B2 | c4 A2 A2 | B4 G2 E2 |[M:3/4] E2 c2 A2 |[M:1/4] A2 | %42
[M:4/4] d2 B2 G2 E2 |[M:8/4] A8 z8 |] %44
V:2
 z4 z2 [CE][CE] | [CE]2 [CE]2 [CE]2 [CE][CE] |[M:3/4] [CE]2 [CE]2 [CE]2 |[M:1/4] [CE][CE] | %4
[M:4/4] [CE]2 [CE]2 [CE]2 [CE][CE] | [CE]2 [CE]2 [CE]2 [CE][CE] | [DF]2 [DF]2 [DF]2 [DF][DF] | %7
 [CE]2 [CE]2 [CE]2 [CE][CE] | D2 D2 D2 DD |[M:3/4] C2 [CE]2 [CE]2 |[M:1/4] [CE][CE] | %11
[M:4/4] D2 D2 D2 DD |[M:3/4] C2 C2 C2 |[M:1/4] [CE][CE] |[M:4/4] [CE]2 [CE]2 [CE]2 [CE][CE] | %15
 [CE]2 [CE]2 [CE]2 [CE][CE] | [DF]2 [DF]2 [DF]2 [DF][DF] | [CE]2 [CE]2 [CE]2 [CE][CE] | %18
 D2 D2 D2 DD |[M:3/4] C2 [CE]2 [CE]2 |[M:1/4] [CE]E |[M:4/4] D2 D2 D2 DD | C2 [CE]2 [CA]4 | %23
 G2 GG [^DF]2 [DG]2 | E2 G2 G2 G2 | [FB]2 [FA]2 [^DG]2 [DF]2 | [EG]2 [EG]2 [GB]2 G2 | %27
 G2 GG [^DF]2 [DF]2 | E2 G2 G2 G2 | [FA]2 [FA]2 [^DF]2 [B,D]2 |[M:3/4] [B,E]6 |[M:1/4] [CE][CE] | %32
[M:4/4] [CE]2 [CE]2 [CE]2 [CE][CE] |[M:3/4] [CE]2 [CE]2 [CE]2 |[M:1/4] [CE][CE] | %35
[M:4/4] [CE]2 [CE]2 [CE]2 [CE][CE] | [CE]2 [CE]2 [CE]2 [CE][CE] | [DF]2 [DF]2 [DF]2 [DF][DF] | %38
 [CE]2 [CE]2 [CE]2 [CE][CE] | D2 D2 D2 DD |[M:3/4] C2 [CE]2 [CE]2 |[M:1/4] [CE]E | %42
[M:4/4] D2 D2 D2 DD |[M:8/4] C2 [CE]2 [CA]4 z8 |] %44
V:3
 z4 z2 [A,,A,][A,,A,] | [A,,A,]2 [A,,A,]2 [A,,A,]2 [A,,A,][A,,A,] | %2
[M:3/4] [A,,A,]2 [A,,A,]2 [A,,A,]2 |[M:1/4] [A,,A,][A,,A,] | %4
[M:4/4] [A,,A,]2 [A,,A,]2 [A,,A,]2 [A,,A,][A,,A,] | [A,,A,]2 [A,,A,]2 [A,,A,]2 [A,,A,][A,,A,] | %6
 [A,,A,]2 [A,,A,]2 [A,,A,]2 [A,,A,][A,,A,] | [A,,A,]2 [A,,A,]2 [A,,A,]2 [A,,A,][A,,A,] | %8
 [E,G,B,]2 [E,G,B,]2 [E,G,B,]2 [E,G,B,][E,G,B,] |[M:3/4] [A,,A,]2 [A,,A,]2 [A,,A,]2 | %10
[M:1/4] [A,,A,][A,,A,] |[M:4/4] [E,G,B,]2 [E,G,B,]2 [E,G,B,]2 [E,G,B,][E,G,B,] | %12
[M:3/4] [A,,A,]2 [A,,A,]2 [A,,A,]2 |[M:1/4] [A,,A,][A,,A,] | %14
[M:4/4] [A,,A,]2 [A,,A,]2 [A,,A,]2 [A,,A,][A,,A,] | [A,,A,]2 [A,,A,]2 [A,,A,]2 [A,,A,][A,,A,] | %16
 [A,,A,]2 [A,,A,]2 [A,,A,]2 [A,,A,][A,,A,] | [A,,A,]2 [A,,A,]2 [A,,A,]2 [A,,A,][A,,A,] | %18
 [E,G,B,]2 [E,G,B,]2 [E,G,B,]2 [E,G,B,][E,G,B,] |[M:3/4] [A,,A,]2 [A,,A,]2 [A,,A,]2 | %20
[M:1/4] [A,,A,]C |[M:4/4] [E,G,B,]2 [E,G,B,]2 [E,G,B,]2 [E,G,B,][E,G,B,] | %22
 [A,,A,]2 [A,,A,]2 [A,,A,]4 | [E,B,E]2 [E,B,E][E,B,E] [B,,B,]2 [B,,B,]2 | %24
 [E,G,]2 [E,B,E]2 [E,B,E]2 [E,B,E]2 | [B,,B,]2 [B,,B,]2 [B,,B,]2 [B,,B,]2 | %26
 [E,B,]2 [E,B,]2 [E,B,]2 [E,B,E]2 | [E,B,E]2 [E,B,E][E,B,E] [B,,B,]2 [B,,B,]2 | %28
 [E,B,]2 [E,B,E]2 [E,B,E]2 [E,B,E]2 | [B,,B,]2 [B,,B,]2 [B,,B,]2 [B,,A,]2 |[M:3/4] [E,G,]6 | %31
[M:1/4] [A,,A,][A,,A,] |[M:4/4] [A,,A,]2 [A,,A,]2 [A,,A,]2 [A,,A,][A,,A,] | %33
[M:3/4] [A,,A,]2 [A,,A,]2 [A,,A,]2 |[M:1/4] [A,,A,][A,,A,] | %35
[M:4/4] [A,,A,]2 [A,,A,]2 [A,,A,]2 [A,,A,][A,,A,] | [A,,A,]2 [A,,A,]2 [A,,A,]2 [A,,A,][A,,A,] | %37
 [A,,A,]2 [A,,A,]2 [A,,A,]2 [A,,A,][A,,A,] | [A,,A,]2 [A,,A,]2 [A,,A,]2 [A,,A,][A,,A,] | %39
 [E,G,B,]2 [E,G,B,]2 [E,G,B,]2 [E,G,B,][E,G,B,] |[M:3/4] [A,,A,]2 [A,,A,]2 [A,,A,]2 | %41
[M:1/4] [A,,A,]C |[M:4/4] [E,G,B,]2 [E,G,B,]2 [E,G,B,]2 [E,G,B,][E,G,B,] | %43
[M:8/4] [A,,A,]2 [A,,A,]2 [A,,A,]4 z8 |] %44

